src/pos-icons/mushroom-outline.svg

<svg height="24" viewBox="0 0 24 24" width="24" xmlns="http://www.w3.org/2000/svg"><path d="m4 12h16c0-3.73-2.56-6.87-6-7.75-.14.99-1 1.75-2 1.75s-1.86-.76-2-1.75c-3.44.88-6 4.02-6 7.75m8-10a10 10 0 0 1 10 10 2 2 0 0 1 -2 2h-16a2 2 0 0 1 -2-2 10 10 0 0 1 10-10m1.5 15h-3l-.58 2-.27 1h4.7l-.27-1zm1.5-2 1 3.5.27.95.08.55c0 1.1-.9 2-2 2h-4.7l-.48-.06c-1.07-.28-1.72-1.37-1.44-2.44l.27-1 1-3.5zm1-8a2 2 0 0 1 2 2 2 2 0 0 1 -2 2 2 2 0 0 1 -2-2 2 2 0 0 1 2-2m-8 0a2 2 0 0 1 2 2 2 2 0 0 1 -2 2 2 2 0 0 1 -2-2 2 2 0 0 1 2-2z"/></svg>

<?xml version="1.0" encoding="UTF-8"?><!DOCTYPE svg PUBLIC "-//W3C//DTD SVG 1.1//EN" "http://www.w3.org/Graphics/SVG/1.1/DTD/svg11.dtd"><svg xmlns="http://www.w3.org/2000/svg" xmlns:xlink="http://www.w3.org/1999/xlink" version="1.1" id="mdi-mushroom-outline" width="24" height="24" viewBox="0 0 24 24"><path d="M4,12H20C20,8.27 17.44,5.13 14,4.25C13.86,5.24 13,6 12,6C11,6 10.14,5.24 10,4.25C6.56,5.13 4,8.27 4,12M12,2A10,10 0 0,1 22,12A2,2 0 0,1 20,14H4A2,2 0 0,1 2,12A10,10 0 0,1 12,2M13.5,17H10.5L9.92,19L9.65,20H14.35L14.08,19L13.5,17M15,15L16,18.5L16.27,19.45L16.35,20C16.35,21.1 15.45,22 14.35,22H9.65L9.17,21.94C8.1,21.66 7.45,20.57 7.73,19.5L8,18.5L9,15H15M16,7A2,2 0 0,1 18,9A2,2 0 0,1 16,11A2,2 0 0,1 14,9A2,2 0 0,1 16,7M8,7A2,2 0 0,1 10,9A2,2 0 0,1 8,11A2,2 0 0,1 6,9A2,2 0 0,1 8,7Z" /></svg>
